X:1
T:Stockwell, 87.87
T:Darius Eliot Jones, in Carmina Sacra, 1850
T:Stockwell, 87.87
T:Public Domain
C:Darius Eliot Jones, in Carmina Sacra, 1850
Z:Public Domain
%%score ( 1 2 ) ( 3 4 )
L:1/8
M:3/4
K:Bb
V:1 treble 
V:2 treble 
V:3 bass 
V:4 bass 
V:1
 [DB][DF] | [DF]2 [FB]2 [FA][FB] | [Fc]2 (BA) [FB][Fd] | [Fc]3 [Fe] [Fd][Ec] | [DB]4 [DB][DF] | %5
 [DF]2 [Fd]2 [Gc][Fd] | [Ee]2 [EA]2 [DB][DB] | [GB][EG] (CD) [EF]2 | [DF]4 |] %9
V:2
 x2 | x6 | x2 F2 x2 | x6 | x6 | x6 | x6 | x2 F2 x2 | x4 |] %9
V:3
 [B,,B,][B,,B,] | [B,,B,]2 [B,,D]2 [F,C][F,D] | [F,E]2 ([F,D][E,C]) [D,B,][B,,B,] | %3
 [F,A,]3 [F,C] [F,B,][F,A,] | [B,,B,]4 [B,,B,][B,,B,] | [B,,B,]2 [B,,B,]2 [E,G,][D,=B,] | %6
 [C,C]2 [F,C]2 [G,B,][F,B,] | [E,B,][E,B,] (A,B,) [F,C]2 | [B,,B,]4 |] %9
V:4
 x2 | x6 | x6 | x6 | x6 | x6 | x6 | x2 F,2 x2 | x4 |] %9

